X: 28244
T: Mrs. Hamilton Of Pencaitland
R: reel
M: 4/4
K: Cmajor
G/F/|E>FGG AcAF|Ec G>F//E// D3 G/F/|E>FGG A>B cf|egfd c2 c
G/F/|E>FGG AcGe|FdEc D2 DG/F/|E>FGG Ac GF/E/|FG/A/ GB, C2 C||
g/f/|egfd c2 cd/e/|fage d2 dg/f/|e>fdB ce GF/E/|FG/A/ GB, C2 C
g/f/|egfd c2 cd/e/|fage d2 de/f/|g>efd ec GF/E/|FG/A/ GB, C2 C||
|:G/F/|ECCC EC A/G/F/E/|F/>E/F/G/ A/G/F/E/ D3 G/F/|ECGE cG ec/e/|
f/e/d/c/ B/A/G/F/ EC C:|g/f/|egfd c/d//e// f//g//a//b// c'
d/e/|fage d/e//f// g//a//b//c'// d'f|e>fdB ce GF/E/|
FAGB, C3 g/f/|egfd c/d//e// f//g//a//b// c'e|
fg/a/ ge d/e//f// g//a//b//c'// d'f|eg/e/ fd ec GF/E/|FG/A/ GB, C2 C||

